X:1
T:Carolina Fox Trot
T:Carolina Fox Trot
T:Will H. Vodery
T:1914
T:1914
T:1914
T:1914
T:1914
C:Will Vodery
Z:1914
%%score { ( 1 3 ) | ( 2 4 ) }
L:1/8
Q:1/4=82
M:2/4
K:C
V:1 treble nm="Piano" snm="Pno."
V:3 treble 
V:2 bass 
V:4 bass 
V:1
"^Real Slow Drag"!f! [Aa]/[Bb]/ | [ceac']/[cea][cea]/-!<(! [cea]/[ceb][cea]/ | %2
 [ceac']/[cea][cea]/- [cea]/[ceac'][cea]/ | [B^dab][Bdab][Bdab]!<)![Bdab] | [e^ge']3 A/B/ | %5
!ff! [CEAc]/[CEA][CEA]/- [CEA]/[CEB][CEA]/ | [CEAc]/[CEA][CEA]/- [CEA]/[CEAc][CEA]/ | %7
 [^DAB][DAB] [DAB][DAB] | [E^Ge]2 [=G=Bf=g]/G/A/B/ |:!mf!"_marcato" [EGc]3/2(3F/4G/4^G/4 A/[Fc]A/ | %10
 [EGc]3/2(3F/4G/4^G/4 A/[Fc]A/ | [EGc]3/2(3F/4G/4^G/4 A/[Fc]A/ | [^Fcd]/[Fce][=FBd]/- [FBd]/G/g | %13
 [EGc]3/2(3F/4G/4^G/4 A/[Fc]A/ | [EGc]3/2(3F/4G/4^G/4 A/[Fc]A/ | [^DAB]3/2(3^F/4G/4^G/4 A/[DB]^F/ | %16
 [B,E^GB][B,^FAB] [B,=F=GB]>G | [EGc]3/2(3F/4G/4^G/4 A/[Fc]A/ | [EGc]3/2(3F/4G/4^G/4 A/[Fc]A/ | %19
 [EGc]3/2(3F/4G/4^G/4 A/[Fc]A/ | [^Fcd]/[Fce][=FBd]/- [FBd]/G/g | %21
 [EGc][EGd]/^d/ [EGe]/[EG=d][EGe]/ | [Fc]d/^d/ [Fe]/[F=d][Fe]/ | [Ec]/G/[EA]/G/ [EA]/c[EA]/ |1 %24
 [^Fc]/[=Fd][Ec]/- [Ec]/G/A/B/ :|2 [^Fc]/[=Fd][Ec]/- [Ec] z/ (3G/4A/4B/4 || %26
!f! [EGc]/[EGe][EGc]/- [EGc]/d/c | [E_B]/[EB][EB]/- [EB]/[EB][EB]/ | [FAd]/e[FAd]/- [FAd]/c/[^DA] | %29
 [EGc]2- [EGc]/ z/ z | z/ E/F/^F/ [EG]/c[^FA]/ | [=F^A]/[FB][FG]/- [FG]2 | %32
 z/ [FG]/[FA]/[F^A]/ [FB]/[FBf][FBd]/ | [^F^d]/[Ge][Ec]/- [Ec]/[=FG]/[FA]/[FB]/ | %34
 [EGc]/[EGe][EGc]/- [EGc]/d/c | [E_B]/[EB][EB]/- [EB]/[EB][EB]/ | [FAd]/e[FAd]/- [FAd]/c/[^DA] | %37
 [EGc]2- [EGc]/B/c/d/ | [E_Be]/d[EBc]/- [EBc]/c/d/e/ | [Fd]/c[FA]/- [FA]/c/d/c/ | %40
 e/>c/d/B/ d/>c/d/c/ | [GBe]/[FBd][EGc]/- [EGc]/G/A/B/ || %42
!mf!"_marc." [EGc]3/2(3F/4G/4^G/4 A/[Fc]A/ | [EGc]3/2(3F/4G/4^G/4 A/[Fc]A/ | %44
 [EGc]3/2(3F/4G/4^G/4 A/[Fc]A/ | [^Fcd]/[Fce][=FBd]/- [FBd]/G/g | [EGc]3/2(3F/4G/4^G/4 A/[Fc]A/ | %47
 [EGc]3/2(3F/4G/4^G/4 A/[Fc]A/ | [^DAB]3/2(3^F/4G/4^G/4 A/[DB]^F/ | [B,E^GB][B,^FAB] [B,=F=GB]>G | %50
 [EGc]3/2(3F/4G/4^G/4 A/[Fc]A/ | [EGc]3/2(3F/4G/4^G/4 A/[Fc]A/ | [EGc]3/2(3F/4G/4^G/4 A/[Fc]A/ | %53
 [^Fcd]/[Fce][=FBd]/- [FBd]/G/g | [EGc][EGd]/^d/ [EGe]/[EG=d][EGe]/ | [Fc]d/^d/ [Fe]/[F=d][Fe]/ | %56
 [Ec]/G/[EA]/G/ [EA]/c[EA]/ | [^Fc]/[=Fd][Ec]/- [Ec] z ||[K:F]"^Trio" [EAc]/[FAc][DAc]/- [DAc] z | %59
 z3/4 [ad']/<[bc']/[ad']/4 [bc']/[^d^f]/[eg] | [EAc]/[FAc][DAc]/- [DAc] z | %61
 z3/4 [ad']/<[bc']/[ad']/4 [bc']/[^d^f]/[eg] | z3/4 [Af]/<[ce]/[Af]/4 [ce]/[Af][Ad]/ | %63
 [FBf]/[DBd][DBd]/- [DBd]2 | z3/4 [Ae]/<[Bd]/[Ae]/4 [Bd]/[=Be][Bd]/ | [Fd]/[Fc][Fe]/ [FBd][EBc] | %66
 [EAc]/[FAc][DAc]/- [DAc] z | z3/4 [ad']/<[bc']/[ad']/4 [bc']/[^d^f]/[eg] | %68
 =E/F[FAd]/- [FAd][FAc] | [FBf]4 | [FAf]/d[FAf]/- [FAf]/d/[FAf] | [FAf]/d[^FA]/- [FA]2 | %72
 z3/4 c/<[DGB]/c/4 [CEA]<[B,EG] | [A,CF]F/F/ FF ||[K:Bb]!p! ^F/!<(!G[=Fd]/- [Fd][Fc] | %75
 [FB]/F[=EA]/- [EA]/E/[EG]!<)! | [_EF]"^(clap hands)" z z2 | z2 z F | ^F/G[=Fd]/- [Fd][Fc] | %79
 [FB]/F[=EA]/- [EA]/E/[EG] | [FA]z[Fc] z | c/B/A/G/ FF | ^F/G[=Fd]/- [Fd][Fc] | %83
 [FB]/F[=EA]/- [EA]/E/[EG] | [_EF]"^(clap hands)" x x2 | x2 x2 | [DB]/[Dc][Dd]/- [Dd]B | %87
 [FBf]/[EBe][EB]/- [EB]c/^c/ | [Fd]/^c/[Fd]/c/ [=EBd][_EAc] | [DFB][Ff]/[Ff]/ [Ff][Ff] | %90
!ff! [^FB^f]/[GBg][d=fd']/- [dfd'][cfc'] | [Bfb]/[FBf][A=ea]/- [Aea]/e/[Beg] | %92
 [FA_ef]"^(Knock on Piano with knuckles.)" z z2 | z2 z [Ff] | [^FB^f]/[GBg][d=fd']/- [dfd'][cfc'] | %95
 [Bfb]/[FBf][A=ea]/- [Aea]/e/[Beg] | [Afa]z[cfc'] z | c'/b/a/g/ ff | %98
 [^FB^f]/[GBg][d=fd']/- [dfd'][cfc'] | [Bfb]/[FBf][A=ea]/- [Aea]/e/[Beg] | %100
 [FA_ef]"^(Knuckles.)" z z2 | z4 | [Bb]/[cc'][dd']/- [dd'][Bb] | [fbf']/[ebe'][Beb]/- [Beb][cc'] | %104
 [dd']/[^c^c']/[dd']/[=c=c']/ [=ebd'][_eac'] | [Bdb]2 [Bdb] z |] %106
V:2
 z |[K:treble] [A,A]/[A,A][A,A]/- [A,A][A,A] | [G,G]/[G,G][G,G]/- [G,G][G,G] | %3
 [^F,^F][F,F][=F,=F][F,F] | [E,E]B, [E,E] z |[K:bass] [A,,A,]/[A,,A,][A,,A,]/- [A,,A,][A,,A,] | %6
 [G,,G,]/[G,,G,][G,,G,]/- [G,,G,][G,,G,] | [^F,,^F,][F,,F,] [=F,,=F,][F,,F,] | %8
 [E,,E,]2 [D,,D,] z |: [C,,C,][E,,E,] [F,,F,][A,,A,] | [C,C][G,,G,] [A,,A,][F,,F,] | %11
 [C,,C,][E,,E,] [F,,F,][A,,A,] | E,,[D,^F,C] G,,[=F,G,B,] | [C,,C,][E,,E,] [F,,F,][A,,A,] | %14
 [C,C][G,,G,] [A,,A,][F,,F,] | [^F,,^F,][B,,,B,,] [^C,,^C,][^D,,^D,] | %16
 [E,,E,][^D,,^D,] [=D,,=D,][G,,G,] | [C,,C,][E,,E,] [F,,F,][A,,A,] | [C,C][G,,G,] [A,,A,][F,,F,] | %19
 [C,,C,][E,,E,] [F,,F,][A,,A,] | E,,[D,^F,C] G,,[=F,G,B,] | C,[_B,CE] _B,,[B,CE] | %22
 A,,[A,C] _A,,[_A,CD] | G,,[=A,C] =A,,[A,C] |1 [D,,D,]/[G,,G,][C,C]/- [C,C] z :|2 %25
 [D,,D,]/[G,,G,][C,C]/- [C,C] z || C,[G,C] G,,[G,C] | C,[G,_B,C] G,,[G,B,C] | %28
 F,,[F,A,C] [F,,F,][^F,,^F,] | [G,,G,][E,G,C] [G,CE]/[E,,E,]/[F,,F,]/[^F,,^F,]/ | %30
 [G,,G,][E,G,C] [E,,E,][_E,,_E,] | [D,,D,][F,G,B,]- [F,G,B,]/[G,,G,]/[A,,A,]/[^A,,^A,]/ | %32
 [B,,B,][F,G,B,] G,,[F,G,B,] | C,[G,C] G,,[G,C] | C,[G,C] G,,[G,C] | C,[G,_B,C] G,,[G,B,C] | %36
 F,,[F,A,C] [F,,F,][^F,,^F,] | [G,,G,][E,G,C] [G,CE] z | C,[_B,C] _B,,[B,C] | %39
 A,,[F,A,C] [A,,A,][_A,,_A,] | [G,,G,][_A,,_A,] [G,,G,][A,,A,] | [G,,G,]/[G,,G,][C,C]/- [C,C] z || %42
 [C,,C,][E,,E,] [F,,F,][A,,A,] | [C,C][G,,G,] [A,,A,][F,,F,] | [C,,C,][E,,E,] [F,,F,][A,,A,] | %45
 E,,[D,^F,C] G,,[=F,G,B,] | [C,,C,][E,,E,] [F,,F,][A,,A,] | [C,C][G,,G,] [A,,A,][F,,F,] | %48
 [^F,,^F,][B,,,B,,] [^C,,^C,][^D,,^D,] | [E,,E,][^D,,^D,] [=D,,=D,][G,,G,] | %50
 [C,,C,][E,,E,] [F,,F,][A,,A,] | [C,C][G,,G,] [A,,A,][F,,F,] | [C,,C,][E,,E,] [F,,F,][A,,A,] | %53
 E,,[D,^F,C] G,,[=F,G,B,] | C,[_B,CE] _B,,[B,CE] | A,,[A,C] _A,,[_A,CD] | G,,[=A,C] =A,,[A,C] | %57
 [D,,D,]/[G,,G,][C,C]/- [C,C] z ||[K:F] F,,[C,F,A,] [A,,A,][_A,,_A,] | [G,,G,][B,CE] C,,[B,CE] | %60
 F,,[C,F,A,] [A,,A,][_A,,_A,] | [G,,G,][B,CE] C,,[B,CE] | F,,[C,F,A,] C,,[C,F,A,] | %63
 G,,[G,B,] C,,[G,B,] | G,,[G,B,] ^G,,[^G,=B,D] | [A,,A,]/[A,,A,][A,,A,]/ [G,,G,][C,C] | %66
 F,,[C,F,A,] [A,,A,][_A,,_A,] | [G,,G,][B,CE] C,,[B,CE] | F,[A,C] _E,[A,C] |x/F,/G,/B,/- B,/C/D | %70
 [D,=B,]>[D,B,]- [D,B,][D,B,] | [C,C]>[D,C]- [D,C][^F,,^F,] | [G,,G,][D,G,B,] C,,C, | %73
 [F,,F,] z z2 ||[K:Bb] [=E,B,C]2 [_E,A,C]2 | [D,B,]2 [_D,B,]2 | [C,A,] z z2 | z4 | %78
 [=E,B,C]2 [_E,A,C]2 | [D,B,]2 [_D,B,]2 | [C,A,]z[A,,A,] z | G,,[G,B,C] [F,,F,][F,A,] | %82
 [=E,B,C]2 [_E,A,C]2 | [D,B,]2 [_D,B,]2 | [C,A,] z z2 | z4 | [B,,B,][_A,B,] [_A,,_A,][A,B,] | %87
 [G,,G,][G,B,] [_G,,_G,]2 | [F,,F,][F,B,D] [C,,C,][F,,F,] | [B,,B,] z z2 | =E,2 _E,2 | D,2 _D,2 | %92
 [C,A,] z z2 | z4 | =E,2 _E,2 | D,2 _D,2 | [C,A,]z[A,,A,] z | G,,[G,B,C] [F,,F,][F,A,] | %98
 =E,2 _E,2 | D,2 _D,2 | [C,A,] z z2 | z4 | [B,,B,][_A,B,D] [_A,,A,][A,B,D] | %103
 [G,,G,][G,B,E] [_G,,_G,]2 | [F,,F,][F,B,D] [C,,C,][F,,F,] | [B,,B,][F,,F,] [B,,,B,,] z |] %106
V:3
 x | x4 | x4 | x4 | x4 | x4 | x4 | x4 | x4 |: x4 | x4 | x4 | x4 | x4 | x4 | x4 | x4 | x4 | x4 | %19
 x4 | x4 | x4 | x4 | x4 |1 x4 :|2 x4 || x4 | e2- e/dc/ | x4 | x4 | x4 | x4 | x4 | x4 | x4 | %35
 e2- e/dc/ | x4 | x4 | x4 | x4 | EF EF | x4 || x4 | x4 | x4 | x4 | x4 | x4 | x4 | x4 | x4 | x4 | %52
 x4 | x4 | x4 | x4 | x4 | x4 ||[K:F] x4 | x4 | x4 | x4 | x4 | x4 | x4 | x4 | x4 | x4 | x4 | x4 | %70
 x4 | x4 | x4 | x4 ||[K:Bb] x4 | x4 | x c/c/ cc/c/ | c/cc/ c x | x4 | x4 | x4 | D=E F_E | x4 | x4 | %84
 x c/c/ cc/c/ | c/cc/ c2 | x4 | x4 | x4 | x4 | x4 | x4 | x c/c/ cc/c/ | c/cc/ c x | x4 | x4 | x4 | %97
 d=e fF | x4 | x4 | x c/c/ cc/c/ | c/cc/ c z | x4 | x4 | x4 | x4 |] %106
V:4
 x |[K:treble] x4 | x4 | x4 | x4 |[K:bass] x4 | x4 | x4 | x4 |: x4 | x4 | x4 | x4 | x4 | x4 | x4 | %16
 x4 | x4 | x4 | x4 | x4 | x4 | x4 | x4 |1 x4 :|2 x4 || x4 | x4 | x4 | x4 | x4 | x4 | x4 | x4 | x4 | %35
 x4 | x4 | x4 | x4 | x4 | x4 | x4 || x4 | x4 | x4 | x4 | x4 | x4 | x4 | x4 | x4 | x4 | x4 | x4 | %54
 x4 | x4 | x4 | x4 ||[K:F] x4 | x4 | x4 | x4 | x4 | x4 | x4 | x4 | x4 | x4 | x4 | D,4 | x4 | x4 | %72
 x4 | x4 ||[K:Bb] x4 | x4 | x4 | x4 | x4 | x4 | x4 | x4 | x4 | x4 | x4 | x4 | x4 | x4 | x4 | x4 | %90
 =E,[B,C] _E,[A,C] | D,[F,B,] _D,[G,B,] | x4 | x4 | =E,[B,C] _E,[A,C] | D,[F,B,] _D,[G,B,] | x4 | %97
 x4 | =E,[B,C] _E,[A,C] | D,[F,B,] _D,[G,B,] | x4 | x4 | x4 | x4 | x4 | x4 |] %106

